img/facebook.svg

<svg width="21" height="22" viewBox="0 0 21 22" fill="none" xmlns="http://www.w3.org/2000/svg">
<path d="M21 10.8573C21 5.02263 16.2992 0.292969 10.5013 0.292969C4.70079 0.294281 0 5.02263 0 10.8586C0 16.1302 3.8399 20.5003 8.85827 21.293V13.9111H6.19423V10.8586H8.86089V8.52919C8.86089 5.88221 10.4291 4.42027 12.8268 4.42027C13.9764 4.42027 15.1772 4.6263 15.1772 4.6263V7.22473H13.853C12.5499 7.22473 12.143 8.03969 12.143 8.87565V10.8573H15.0538L14.5892 13.9098H12.1417V21.2917C17.1601 20.499 21 16.1289 21 10.8573Z" fill="#E6E6E6"/>
</svg>

<svg width="21" height="22" fill="none" xmlns="http://www.w3.org/2000/svg"><path d="M21 10.857C21 5.023 16.3.293 10.501.293 4.701.294 0 5.023 0 10.859 0 16.13 3.84 20.5 8.858 21.293v-7.382H6.194V10.86h2.667V8.53c0-2.647 1.568-4.109 3.966-4.109 1.15 0 2.35.206 2.35.206v2.599h-1.324c-1.303 0-1.71.815-1.71 1.65v1.982h2.91l-.464 3.053h-2.447v7.382C17.16 20.499 21 16.129 21 10.857Z" fill="#E6E6E6"/></svg>
